-----BEGIN PGP SIGNATURE-----

iQIzBAABCAAdFiEEvKQ0F8O0hd0SjsbUt7O3iKjTeFwFAmpFWjAACgkQt7O3iKjT
eFxD+Q/+K62XG1Z6Psy8GmkSmw2uRL0z+4YIVqugOZ5yA0km6owOBPSvMqmwU5rz
2M332VqIZKvm6TMKGVSyQnIBpTU7GXVVmuGdd+mUCxyhz0//+fjOX5m6FTiYCzhI
mRy2THetB6Vy/KSI7NzE5UUR6eg0cFzclg/nqEwMe5EuQrpcqzbwMHc6MAtnKqLv
TCsaPRD+bYfj2C8QSSuZqZkPpFRH8QCMUBDLTFBmlNfr5AfAJ1mCYEuujN0kb5Px
N0z4TaMfxe2ixPm3ipl5e/5WThhCofsU18fCt0ADXwV1INmsEmzzajgsa2vLLVkp
lC1SAgUD4uTdQ50mXAqCKwg1o99PY5ku2AOv3CwLVAESNzcRvUJKN4x5E1SPmv0q
0/AFgCwY5QSZxGuk99nrzk0PT8UQGhFDGtYsvv+5kgzuXR3DgstObG9W1CYp/f4S
dzuKWIrz9wEdFmN7raemiYfG+77mfCMYaAAEAt3w3iZUR7xOi4NQ6EqQ8Pkrk67l
WT8dmTxkfMbDK6V1DvjQKEx7dDmLcOaLDYnu2L6e7VywJDxpRAcWt5Xu/NE7J14N
BpVlb2eBSqL5mUTTleCuLTT4b0LGFpm4iDFK339FAYLvcqnkJdHQX1HC2oIrpfaj
ATs7yRpOwRLOSHfYO2qJYJ9jVPdgkLsjw5XtYzjtgyg32shPTf4=
=BOg6
-----END PGP SIGNATURE-----
